X:98
T: Alter Mann und Schueler
N: Q0025
O: Mitteleuropa, Deutschland (BRD) , Rheinpfalz, Bergzabern
N: Verzierungen (Vorschlaege) in der 3. bis 5. Zeile.
R: Ballade, Betrug, Hinrichtung, Tod, Vergeltung
M: none
L: 1/16
K: G
D2 | G2B2G2G2FG | A2B2G4z2
G2 | B2d3cB2A2 | G4A4z2
G2 | B2G2d6e2B2G2 | c4z2
B2A2G2 | c4B4 | A4G4z2
G2 | B2d2c4B4 | A4G2z2

@@@ Tune index: 727
